icons/fill-ele-symbol-upload.svg

<svg xmlns="http://www.w3.org/2000/svg" width="32px" height="32px" viewBox="0 0 32 32" version="1.1">
    <title>fill-ele-symbol-upload</title>
    <g id="fill-ele-symbol-upload" stroke-width="1" fill-rule="evenodd">
        <path d="M16,5 C19.9958752,5 23.2618872,8.12491604 23.4875533,12.0642656 C27.1626444,12.5475296 30,15.6924148 30,19.5 C30,23.6421356 26.6421356,27 22.5,27 L17.5,27 L17.5,20 L21,20 L16,14 L11,20 L14.5,20 L14.5,27 L9.5,27 C5.35786438,27 2,23.6421356 2,19.5 C2,15.6924148 4.83735563,12.5475296 8.51305296,12.0643582 C8.73811285,8.12491604 12.0041248,5 16,5 Z" id="&#36335;&#24452;" />
    </g>
</svg>

<svg xmlns="http://www.w3.org/2000/svg" viewBox="0 0 32 32"><path fill="currentColor" d="M16 5a7.5 7.5 0 0 1 7.488 7.064A7.502 7.502 0 0 1 22.5 27h-5v-7H21l-5-6-5 6h3.5v7h-5a7.5 7.5 0 0 1-.987-14.936A7.5 7.5 0 0 1 16 5"/></svg>
